brandFactory_export/2.Regular/Compartir_2Regular.svg

<?xml version="1.0" encoding="UTF-8"?>
<svg width="24px" height="24px" viewBox="0 0 24 24" version="1.1" xmlns="http://www.w3.org/2000/svg" xmlns:xlink="http://www.w3.org/1999/xlink">
    <title>2.Regular/Compartir_2Regular</title>
    <g id="Symbols" stroke="none" stroke-width="1" fill="none" fill-rule="evenodd">
        <g id="2.Regular/Compartir_2Regular" fill="#5CB615" fill-rule="nonzero">
            <path d="M11.8117647,0.0168067227 C15.5731092,0.0168067227 18.487395,0.991596639 20.4840336,2.91428571 C22.5546218,4.91092437 23.6067227,7.90252101 23.6067227,11.8117647 C23.6067227,15.7210084 22.5546218,18.712605 20.4840336,20.7092437 C18.487395,22.6319328 15.5697479,23.6067227 11.8117647,23.6067227 C8.05378151,23.6067227 5.13613445,22.6319328 3.1394958,20.7092437 C1.06890756,18.712605 0.0168067227,15.7210084 0.0168067227,11.8117647 C0.0168067227,7.90588235 1.06554622,4.91092437 3.1394958,2.91428571 C5.13277311,0.991596639 8.05042017,0.0168067227 11.8117647,0.0168067227 Z M11.8117647,1.36470588 C8.41344538,1.36470588 5.80840336,2.21176471 4.07394958,3.88571429 C2.27563025,5.61680672 1.36470588,8.28571429 1.36470588,11.8151261 C1.36470588,15.3445378 2.27563025,18.010084 4.07394958,19.7445378 C5.80840336,21.4184874 8.41344538,22.2655462 11.8117647,22.2655462 C15.210084,22.2655462 17.8151261,21.4184874 19.5495798,19.7445378 C21.3478992,18.0134454 22.2588235,15.3445378 22.2588235,11.8151261 C22.2588235,8.28571429 21.3478992,5.62016807 19.5495798,3.88571429 C17.8151261,2.21176471 15.210084,1.36470588 11.8117647,1.36470588 Z M15.6605042,4.75294118 C16.5109244,4.75294118 17.2268908,5.00504202 17.7277311,5.4789916 C18.2655462,5.98991597 18.5378151,6.71932773 18.5378151,7.64369748 C18.5378151,8.52773109 18.2857143,9.23697479 17.7882353,9.74453782 C17.2840336,10.2621849 16.5478992,10.5344538 15.6571429,10.5344538 C14.7663866,10.5344538 14.0302521,10.2621849 13.5260504,9.74453782 C13.4521008,9.66722689 13.3815126,9.58655462 13.3176471,9.49915966 L13.3176471,9.49915966 L10.1411765,11.0890756 C10.1848739,11.3142857 10.205042,11.5563025 10.205042,11.8117647 C10.205042,12.0705882 10.1848739,12.312605 10.1411765,12.5411765 L10.1411765,12.5411765 L13.3142857,14.1277311 C13.394958,14.0168067 13.4890756,13.912605 13.589916,13.8151261 C14.087395,13.3411765 14.8033613,13.0890756 15.6571429,13.0890756 C16.5109244,13.0890756 17.2268908,13.3411765 17.7378151,13.8084034 C18.2756303,14.3193277 18.5478992,15.0487395 18.5478992,15.9731092 C18.5478992,16.8571429 18.2957983,17.5663866 17.7983193,18.0739496 C17.2941176,18.5915966 16.5579832,18.8638655 15.6672269,18.8638655 C14.7764706,18.8638655 14.0403361,18.5915966 13.5361345,18.0739496 C13.0386555,17.5663866 12.7865546,16.8605042 12.7865546,15.9731092 C12.7865546,15.7647059 12.8033613,15.5663866 12.8302521,15.3781513 L12.8302521,15.3781513 L9.59663866,13.7613445 C9.55294118,13.8117647 9.51260504,13.8621849 9.46554622,13.9092437 C8.96134454,14.4268908 8.22521008,14.6991597 7.33445378,14.6991597 C6.44369748,14.6991597 5.70756303,14.4268908 5.20336134,13.9092437 C4.70588235,13.4016807 4.45378151,12.6957983 4.45378151,11.8084034 C4.45378151,10.8840336 4.72605042,10.1546218 5.26386555,9.64369748 C5.76134454,9.1697479 6.48067227,8.91764706 7.33109244,8.91764706 C8.1815126,8.91764706 8.89747899,9.1697479 9.39831933,9.64369748 C9.46890756,9.71092437 9.53613445,9.78487395 9.59663866,9.85882353 L9.59663866,9.85882353 L12.8268908,8.24537815 C12.7966387,8.05378151 12.7831933,7.85546218 12.7831933,7.64369748 C12.7831933,6.71932773 13.0554622,5.98991597 13.5932773,5.4789916 C14.0907563,5.00504202 14.8067227,4.75294118 15.6605042,4.75294118 Z M15.6571429,14.4336134 C14.6084034,14.4336134 14.1210084,14.9243697 14.1210084,15.9798319 C14.1210084,16.5042017 14.2453782,16.8941176 14.487395,17.1428571 C14.7361345,17.3983193 15.1294118,17.5260504 15.6571429,17.5260504 C16.1848739,17.5260504 16.5781513,17.3983193 16.8268908,17.1428571 C17.0689076,16.8941176 17.1932773,16.5042017 17.1932773,15.9798319 C17.1932773,14.9243697 16.7058824,14.4336134 15.6571429,14.4336134 Z M7.3210084,10.2655462 C6.27226891,10.2655462 5.78487395,10.7563025 5.78487395,11.8117647 C5.78487395,12.3361345 5.9092437,12.7260504 6.1512605,12.9747899 C6.4,13.2302521 6.79327731,13.3579832 7.3210084,13.3579832 C7.8487395,13.3579832 8.24201681,13.2302521 8.4907563,12.9747899 C8.57815126,12.887395 8.64537815,12.7798319 8.70252101,12.6588235 C8.7092437,12.6386555 8.71932773,12.6184874 8.72941176,12.5983193 C8.81344538,12.3831933 8.85714286,12.1210084 8.85714286,11.8117647 C8.85714286,11.5159664 8.82016807,11.2672269 8.74285714,11.0588235 C8.7394958,11.0554622 8.73613445,11.0487395 8.73277311,11.0420168 C8.71596639,11.0117647 8.70588235,10.9815126 8.69579832,10.9512605 C8.47394958,10.487395 8.02352941,10.2655462 7.3210084,10.2655462 Z M15.6571429,6.10084034 C14.6084034,6.10084034 14.1210084,6.59159664 14.1210084,7.64705882 C14.1210084,8.17142857 14.2453782,8.56134454 14.487395,8.81008403 C14.7361345,9.06554622 15.1294118,9.19327731 15.6571429,9.19327731 C16.1848739,9.19327731 16.5781513,9.06554622 16.8268908,8.81008403 C17.0689076,8.56134454 17.1932773,8.16806723 17.1932773,7.64705882 C17.1932773,6.59159664 16.7058824,6.10084034 15.6571429,6.10084034 Z" id="Compartir_2Regular"></path>
        </g>
    </g>
</svg>

<svg width="24" height="24" viewBox="0 0 24 24" xmlns="http://www.w3.org/2000/svg"><path d="M11.812.017c3.761 0 6.675.975 8.672 2.897 2.07 1.997 3.123 4.989 3.123 8.898s-1.052 6.9-3.123 8.897c-1.997 1.923-4.914 2.898-8.672 2.898-3.758 0-6.676-.975-8.673-2.898C1.07 18.713.017 15.721.017 11.812c0-3.906 1.049-6.901 3.122-8.898C5.133.992 8.05.017 11.812.017zm0 1.348c-3.399 0-6.004.847-7.738 2.52-1.798 1.732-2.71 4.4-2.71 7.93 0 3.53.912 6.195 2.71 7.93 1.734 1.673 4.34 2.52 7.738 2.52 3.398 0 6.003-.847 7.738-2.52 1.798-1.732 2.709-4.4 2.709-7.93 0-3.53-.911-6.195-2.71-7.93-1.734-1.673-4.339-2.52-7.737-2.52zm3.849 3.388c.85 0 1.566.252 2.067.726.538.51.81 1.24.81 2.165 0 .884-.252 1.593-.75 2.1-.504.518-1.24.79-2.13.79-.892 0-1.628-.272-2.132-.79a2.433 2.433 0 01-.208-.245l-3.177 1.59c.044.225.064.467.064.723 0 .259-.02.5-.064.73l3.173 1.586c.081-.111.175-.215.276-.313.497-.474 1.213-.726 2.067-.726.854 0 1.57.252 2.08.72.539.51.81 1.24.81 2.164 0 .884-.251 1.593-.749 2.1-.504.519-1.24.79-2.13.79-.892 0-1.628-.271-2.132-.79-.497-.507-.75-1.212-.75-2.1 0-.208.017-.407.044-.595l-3.233-1.617c-.044.05-.084.101-.131.148-.505.518-1.24.79-2.132.79-.89 0-1.626-.272-2.13-.79-.498-.507-.75-1.213-.75-2.1 0-.925.272-1.654.81-2.165.497-.474 1.217-.726 2.067-.726.85 0 1.566.252 2.067.726.07.067.138.14.199.215l3.23-1.614a3.839 3.839 0 01-.044-.601c0-.925.272-1.654.81-2.165.498-.474 1.214-.726 2.068-.726zm-.004 9.68c-1.049 0-1.536.491-1.536 1.547 0 .524.124.914.366 1.163.25.255.642.383 1.17.383.528 0 .921-.128 1.17-.383.242-.249.366-.639.366-1.163 0-1.056-.487-1.546-1.536-1.546zm-8.336-4.167c-1.049 0-1.536.49-1.536 1.546 0 .524.124.914.366 1.163.249.255.642.383 1.17.383.528 0 .921-.128 1.17-.383a1.108 1.108 0 00.238-.377c.084-.215.128-.477.128-.786 0-.296-.037-.545-.114-.753a.515.515 0 01-.047-.108c-.222-.464-.672-.685-1.375-.685zM15.657 6.1c-1.049 0-1.536.49-1.536 1.546 0 .524.124.914.366 1.163.25.256.642.383 1.17.383.528 0 .921-.127 1.17-.383.242-.249.366-.642.366-1.163 0-1.055-.487-1.546-1.536-1.546z" fill="#5CB615" fill-rule="nonzero"/></svg>
